static/images/pieces/synochess/intl-red/bC.svg

<svg clip-rule="evenodd" fill-rule="evenodd" height="177.17" image-rendering="optimizeQuality" shape-rendering="geometricPrecision" viewBox="0 0 50 50" width="177.17" xmlns="http://www.w3.org/2000/svg" xmlns:xlink="http://www.w3.org/1999/xlink"><linearGradient id="a" gradientUnits="userSpaceOnUse" x1="12.682456" x2="79.723572" xlink:href="#b" y1="18.638321" y2="18.638321"/><linearGradient id="b"><stop offset="0" stop-color="#fff"/><stop offset="1" stop-color="#600"/></linearGradient><linearGradient id="c" gradientTransform="matrix(.44460705 0 0 .30637536 -17.77961 5.426308)" gradientUnits="userSpaceOnUse" x1="70.649178" x2="203.8524" xlink:href="#b" y1="104.95064" y2="104.95064"/><path d="m38.006864 25.394549-23.572909-20.2078685-7.895602 7.3744185c.792474.867378 19.498154 22.231603 19.498154 22.231603 9.603942 12.91719 22.200917-.03773 11.970357-9.398153z" fill="#600" stroke="#680000" stroke-width="1.69329"/><path d="m39.086997 26.378293c.0977-4.101531 4.549514-4.710701 4.481132-9.66981" fill="none" stroke="#600" stroke-width="1.69329"/><path d="m14.516928 5.8435497-1.503537 1.3856131 28.093421 24.7879612c-.183031-1.05529-.23212-2.251817-1.476151-4.042493z" fill="url(#a)"/><path d="m16.234822 42.056564 3.470354-9.391065c1.801536-4.875105 17.856111-4.602494 19.645762 0l3.686378 9.480356v4.297456h-26.893144z" fill="#600" stroke="#600" stroke-width="1.7135"/><path d="m29.528495 29.811276c-4.155344-.0204-8.309009.914646-9.030214 2.866284l-3.192141 8.63775-.08336 4.255095h24.735693v-4.173115l-3.39021-8.71973c-.727151-1.870031-4.884427-2.845883-9.039763-2.866284zm.01218 1.524098c3.340404.01641 6.682011.800518 7.266554 2.303798l2.225161 7.880906-18.982678-.06582 2.231398-7.815083c.453554-1.588496 3.919206-2.3202 7.259599-2.303799z" fill="url(#c)"/></svg>

<?xml version="1.0" encoding="UTF-8" standalone="no"?>
<svg
   xmlns:dc="http://purl.org/dc/elements/1.1/"
   xmlns:cc="http://creativecommons.org/ns#"
   xmlns:rdf="http://www.w3.org/1999/02/22-rdf-syntax-ns#"
   xmlns:svg="http://www.w3.org/2000/svg"
   xmlns="http://www.w3.org/2000/svg"
   xmlns:xlink="http://www.w3.org/1999/xlink"
   xmlns:sodipodi="http://sodipodi.sourceforge.net/DTD/sodipodi-0.dtd"
   xmlns:inkscape="http://www.inkscape.org/namespaces/inkscape"
   width="177.17"
   height="177.17"
   shape-rendering="geometricPrecision"
   image-rendering="optimizeQuality"
   fill-rule="evenodd"
   clip-rule="evenodd"
   viewBox="0 0 50 50"
   version="1.1"
   id="svg974"
   sodipodi:docname="bCannon.svg"
   inkscape:version="1.0.1 (3bc2e813f5, 2020-09-07)">
  <metadata
     id="metadata978">
    <rdf:RDF>
      <cc:Work
         rdf:about="">
        <dc:format>image/svg+xml</dc:format>
        <dc:type
           rdf:resource="http://purl.org/dc/dcmitype/StillImage" />
        <dc:title></dc:title>
      </cc:Work>
    </rdf:RDF>
  </metadata>
  <sodipodi:namedview
     pagecolor="#ffffff"
     bordercolor="#666666"
     borderopacity="1"
     objecttolerance="10"
     gridtolerance="10"
     guidetolerance="10"
     inkscape:pageopacity="0"
     inkscape:pageshadow="2"
     inkscape:window-width="3840"
     inkscape:window-height="2050"
     id="namedview976"
     showgrid="false"
     inkscape:zoom="3.38447"
     inkscape:cx="-80.208859"
     inkscape:cy="150.34337"
     inkscape:window-x="-12"
     inkscape:window-y="-12"
     inkscape:window-maximized="1"
     inkscape:current-layer="svg974"
     showguides="false"
     inkscape:document-rotation="0" />
  <defs
     id="defs968">
    <linearGradient
       inkscape:collect="always"
       id="linearGradient1002">
      <stop
         style="stop-color:#ffffff;stop-opacity:1"
         offset="0"
         id="stop998" />
      <stop
         style="stop-color:#dcdbdb;stop-opacity:1"
         offset="1"
         id="stop1000" />
    </linearGradient>
    <linearGradient
       id="0"
       x1="21.376"
       x2="77.64"
       gradientUnits="userSpaceOnUse">
      <stop
         stop-color="#fff"
         id="stop963" />
      <stop
         offset="1"
         stop-color="#fff"
         stop-opacity="0"
         id="stop965" />
    </linearGradient>
    <linearGradient
       inkscape:collect="always"
       xlink:href="#linearGradient1002"
       id="linearGradient1004"
       x1="-41.790333"
       y1="22.581646"
       x2="-15.82877"
       y2="22.581646"
       gradientUnits="userSpaceOnUse" />
    <linearGradient
       inkscape:collect="always"
       xlink:href="#linearGradient2682"
       id="linearGradient1080"
       gradientUnits="userSpaceOnUse"
       x1="12.682456"
       y1="18.638321"
       x2="79.723572"
       y2="18.638321" />
    <linearGradient
       id="linearGradient2682"
       inkscape:collect="always">
      <stop
         id="stop2678"
         offset="0"
         style="stop-color:#ffffff;stop-opacity:1;" />
      <stop
         id="stop2680"
         offset="1"
         style="stop-color:#660000;stop-opacity:1" />
    </linearGradient>
    <linearGradient
       inkscape:collect="always"
       xlink:href="#linearGradient2682"
       id="linearGradient16471"
       x1="70.649178"
       y1="104.95064"
       x2="203.8524"
       y2="104.95064"
       gradientUnits="userSpaceOnUse"
       gradientTransform="matrix(0.44460705,0,0,0.30637536,-17.77961,5.426308)" />
  </defs>
  <path
     style="fill:#660000;fill-opacity:1;stroke:#680000;stroke-width:1.69329;stroke-linecap:butt;stroke-linejoin:miter;stroke-miterlimit:4;stroke-dasharray:none;stroke-opacity:1"
     d="M 38.006864,25.394549 14.433955,5.1866805 6.538353,12.561099 c 0.792474,0.867378 19.498154,22.231603 19.498154,22.231603 9.603942,12.91719 22.200917,-0.03773 11.970357,-9.398153 z"
     id="path980"
     inkscape:connector-curvature="0"
     sodipodi:nodetypes="ccccc" />
  <path
     sodipodi:nodetypes="cc"
     inkscape:connector-curvature="0"
     id="path1040"
     d="m 39.086997,26.378293 c 0.0977,-4.101531 4.549514,-4.710701 4.481132,-9.66981"
     style="fill:none;stroke:#660000;stroke-width:1.69329;stroke-linecap:butt;stroke-linejoin:miter;stroke-miterlimit:4;stroke-dasharray:none;stroke-opacity:1" />
  <path
     style="fill:url(#linearGradient1080);fill-opacity:1;stroke:none;stroke-width:0.282215px;stroke-linecap:butt;stroke-linejoin:miter;stroke-opacity:1"
     d="M 14.516928,5.8435497 13.013391,7.2291628 41.106812,32.017124 c -0.183031,-1.05529 -0.23212,-2.251817 -1.476151,-4.042493 z"
     id="path1050"
     inkscape:connector-curvature="0"
     sodipodi:nodetypes="ccccc" />
  <path
     style="fill:#660000;fill-opacity:1;stroke:#660000;stroke-width:1.7135;stroke-linecap:butt;stroke-linejoin:miter;stroke-miterlimit:4;stroke-dasharray:none;stroke-opacity:1"
     d="m 16.234822,42.056564 3.470354,-9.391065 c 1.801536,-4.875105 17.856111,-4.602494 19.645762,0 l 3.686378,9.480356 v 4.297456 H 16.144172 Z"
     id="path10686"
     inkscape:connector-curvature="0"
     sodipodi:nodetypes="csscccc" />
  <path
     style="fill:url(#linearGradient16471);fill-opacity:1;stroke:none;stroke-width:2.03682;stroke-linecap:butt;stroke-linejoin:round;stroke-miterlimit:4;stroke-dasharray:none;stroke-opacity:1"
     d="m 29.528495,29.811276 c -4.155344,-0.0204 -8.309009,0.914646 -9.030214,2.866284 l -3.192141,8.63775 -0.08336,4.255095 H 41.958473 V 41.39729 l -3.39021,-8.71973 C 37.841112,30.807529 33.683836,29.831677 29.5285,29.811276 Z m 0.01218,1.524098 c 3.340404,0.01641 6.682011,0.800518 7.266554,2.303798 l 2.225161,7.880906 -18.982678,-0.06582 2.231398,-7.815083 c 0.453554,-1.588496 3.919206,-2.3202 7.259599,-2.303799 z"
     id="path16460"
     inkscape:connector-curvature="0"
     sodipodi:nodetypes="cccccccscccccscc" />
</svg>
